storage/app/icons/phosphoricons/bold/calendar-plus-bold.svg

<svg xmlns="http://www.w3.org/2000/svg" fill="currentColor" viewBox="0 0 256 256"><path d="M208 28h-20v-4a12 12 0 0 0-24 0v4H92v-4a12 12 0 0 0-24 0v4H48a20 20 0 0 0-20 20v160a20 20 0 0 0 20 20h160a20 20 0 0 0 20-20V48a20 20 0 0 0-20-20M68 52a12 12 0 0 0 24 0h72a12 12 0 0 0 24 0h16v24H52V52ZM52 204V100h152v104Zm112-52a12 12 0 0 1-12 12h-12v12a12 12 0 0 1-24 0v-12h-12a12 12 0 0 1 0-24h12v-12a12 12 0 0 1 24 0v12h12a12 12 0 0 1 12 12"/></svg>

<svg xmlns="http://www.w3.org/2000/svg" viewBox="0 0 256 256" fill="currentColor"><path d="M208,28H188V24a12,12,0,0,0-24,0v4H92V24a12,12,0,0,0-24,0v4H48A20,20,0,0,0,28,48V208a20,20,0,0,0,20,20H208a20,20,0,0,0,20-20V48A20,20,0,0,0,208,28ZM68,52a12,12,0,0,0,24,0h72a12,12,0,0,0,24,0h16V76H52V52ZM52,204V100H204V204Zm112-52a12,12,0,0,1-12,12H140v12a12,12,0,0,1-24,0V164H104a12,12,0,0,1,0-24h12V128a12,12,0,0,1,24,0v12h12A12,12,0,0,1,164,152Z"/></svg>
